austria/municipalities/41011.svg

<?xml version="1.0" encoding="UTF-8"?>
<!DOCTYPE svg PUBLIC "-//W3C//DTD SVG 1.1//EN" "http://www.w3.org/Graphics/SVG/1.1/DTD/svg11.dtd">
<svg xmlns="http://www.w3.org/2000/svg" version="1.1" width="166px" height="207px" style="shape-rendering:geometricPrecision; text-rendering:geometricPrecision; image-rendering:optimizeQuality; fill-rule:evenodd; clip-rule:evenodd" xmlns:xlink="http://www.w3.org/1999/xlink">
<g><path style="opacity:1" fill="#000000" d="M -0.5,-0.5 C 54.8333,-0.5 110.167,-0.5 165.5,-0.5C 165.5,43.8333 165.5,88.1667 165.5,132.5C 157.936,172.065 134.603,196.731 95.5,206.5C 86.8333,206.5 78.1667,206.5 69.5,206.5C 30.0021,196.666 6.6688,171.666 -0.5,131.5C -0.5,87.5 -0.5,43.5 -0.5,-0.5 Z"/></g>
<g><path style="opacity:1" fill="#cb0000" d="M 2.5,2.5 C 55.5,2.5 108.5,2.5 161.5,2.5C 161.5,35.8333 161.5,69.1667 161.5,102.5C 108.5,102.5 55.5,102.5 2.5,102.5C 2.5,69.1667 2.5,35.8333 2.5,2.5 Z"/></g>
<g><path style="opacity:1" fill="#000000" d="M 104.5,5.5 C 109.182,9.13233 109.682,13.4657 106,18.5C 99.9825,22.0082 94.3159,26.0082 89,30.5C 88.2033,33.2204 87.0367,35.7204 85.5,38C 90.2414,38.7336 94.9081,39.4002 99.5,40C 106.455,35.0461 112.788,29.3794 118.5,23C 120.957,21.4379 123.624,20.4379 126.5,20C 134.132,20.7352 140.299,18.2352 145,12.5C 147.495,17.0233 146.662,20.8566 142.5,24C 136.432,26.1341 130.432,28.4674 124.5,31C 121.491,33.677 118.824,36.677 116.5,40C 122.22,40.7876 127.886,40.6209 133.5,39.5C 139.587,40.2121 144.92,42.5454 149.5,46.5C 151.271,50.7595 153.937,54.2595 157.5,57C 155.728,58.4868 153.728,58.8201 151.5,58C 148.476,56.4866 145.809,54.4866 143.5,52C 136.031,51.7847 128.698,52.118 121.5,53C 122.966,55.8135 124.466,58.6469 126,61.5C 129.586,63.7093 133.086,66.0426 136.5,68.5C 138.916,73.0006 141.583,77.3339 144.5,81.5C 148.276,85.6557 152.776,86.9891 158,85.5C 158.684,86.7839 158.517,87.9505 157.5,89C 152.994,91.8141 148.327,92.1474 143.5,90C 137.683,82.8473 130.683,77.1806 122.5,73C 115.918,67.0921 110.918,60.0921 107.5,52C 98.4383,52.8643 89.4383,52.3643 80.5,50.5C 72.8268,55.8363 64.4935,59.8363 55.5,62.5C 53.0864,66.291 49.9197,69.291 46,71.5C 45.4054,72.8989 45.5721,74.2322 46.5,75.5C 48.1667,76.5 49.5,77.8333 50.5,79.5C 48.1495,85.3392 44.3161,89.6725 39,92.5C 36.8546,92.604 35.0212,91.9373 33.5,90.5C 30.1457,97.5361 25.4791,98.3694 19.5,93C 12.0838,87.5708 11.7504,81.9041 18.5,76C 14.8789,72.6189 14.7122,69.1189 18,65.5C 20.5052,63.2514 23.1719,61.2514 26,59.5C 28.8217,60.5775 31.4884,61.9108 34,63.5C 38.3713,60.7946 41.7046,57.1279 44,52.5C 44.6115,45.7758 45.6115,39.1092 47,32.5C 48.0024,28.8359 49.8358,25.6692 52.5,23C 59.4223,20.2936 65.589,16.4603 71,11.5C 71.5465,6.16881 73.2131,5.50214 76,9.5C 76.7284,12.2305 76.5617,14.8971 75.5,17.5C 69.5691,21.2616 64.0691,25.595 59,30.5C 57.128,36.7252 56.4613,43.0586 57,49.5C 62.6233,45.5454 67.9566,41.2121 73,36.5C 76.1288,31.0739 79.6288,25.9072 83.5,21C 89.0714,18.1423 94.738,15.4756 100.5,13C 103.024,11.117 104.358,8.61703 104.5,5.5 Z"/></g>
<g><path style="opacity:1" fill="#fefffe" d="M 73.5,10.5 C 74.6129,11.9464 74.7796,13.6131 74,15.5C 70.0982,18.8676 65.9315,21.8676 61.5,24.5C 59.4229,26.0758 57.9229,28.0758 57,30.5C 55.0134,37.7285 54.0134,45.0618 54,52.5C 62.9643,49.5536 70.2977,44.2202 76,36.5C 78.7734,31.3963 81.9401,26.563 85.5,22C 93.1014,20.3696 99.6014,16.8696 105,11.5C 105.746,14.7894 104.58,17.2894 101.5,19C 97.2505,21.3742 93.0838,23.8742 89,26.5C 86.6276,31.4118 84.1276,36.2451 81.5,41C 83.8344,41.3392 86.1678,41.1725 88.5,40.5C 93.1008,42.7679 97.7674,42.9346 102.5,41C 108.469,36.0328 114.135,30.6995 119.5,25C 125.189,22.3949 131.189,21.0616 137.5,21C 139.899,20.2689 142.065,19.1022 144,17.5C 144.163,19.3867 143.329,20.8867 141.5,22C 134.513,24.1597 127.846,26.993 121.5,30.5C 117.876,34.2598 114.876,38.4265 112.5,43C 121.495,42.8673 130.495,42.8673 139.5,43C 145.924,45.0787 149.758,49.2453 151,55.5C 144.288,48.8512 136.454,47.1845 127.5,50.5C 124.473,50.0621 121.473,49.8955 118.5,50C 119.59,55.8474 122.257,60.8474 126.5,65C 130.274,66.3019 133.441,68.4686 136,71.5C 138.526,80.6931 144.36,86.5265 153.5,89C 150.406,89.6518 147.406,89.3185 144.5,88C 137.998,80.1567 130.332,73.8233 121.5,69C 116.13,63.7709 112.13,57.6042 109.5,50.5C 100.158,49.7821 90.8247,49.1155 81.5,48.5C 75.5597,50.8035 69.893,53.6368 64.5,57C 61.1815,57.8792 57.8482,58.7125 54.5,59.5C 51.2135,63.9547 47.3801,67.9547 43,71.5C 42.2025,73.2588 42.3691,74.9255 43.5,76.5C 45.4974,76.9858 46.8307,78.1525 47.5,80C 45.9111,83.8409 43.5778,87.1742 40.5,90C 37.5254,90.7127 35.0254,89.8793 33,87.5C 31.1715,90.0353 29.1715,92.3687 27,94.5C 21.4918,92.5111 17.6585,88.8445 15.5,83.5C 16.8974,80.5935 18.8974,78.0935 21.5,76C 18.3461,73.2251 17.8461,70.0584 20,66.5C 22.0583,64.9317 24.2249,63.5983 26.5,62.5C 29.5247,63.4291 32.3581,64.7624 35,66.5C 39.4177,62.7533 43.0844,58.4199 46,53.5C 47.0995,45.0157 48.7662,36.6823 51,28.5C 52.1667,26 54,24.1667 56.5,23C 60.4689,21.0156 64.4689,19.0156 68.5,17C 70.7899,15.2228 72.4566,13.0562 73.5,10.5 Z"/></g>
<g><path style="opacity:1" fill="#fefffe" d="M 2.5,105.5 C 55.5,105.5 108.5,105.5 161.5,105.5C 164.671,129.131 159.838,150.798 147,170.5C 144.333,173.167 141.667,175.833 139,178.5C 139.061,170.052 135.228,164.052 127.5,160.5C 124.72,156.95 123.886,152.95 125,148.5C 132.735,136.395 130.569,126.561 118.5,119C 114.62,117.36 110.62,116.693 106.5,117C 112.043,120.777 113.877,125.944 112,132.5C 107.967,137.733 105.134,143.566 103.5,150C 103.888,155.939 106.054,161.105 110,165.5C 113.292,174.794 110.459,181.46 101.5,185.5C 101.167,185.167 100.833,184.833 100.5,184.5C 102.908,178.903 103.074,173.236 101,167.5C 96.1865,162.376 92.6865,156.543 90.5,150C 90.7883,146.257 92.2883,143.09 95,140.5C 97.2406,134.386 96.4073,128.719 92.5,123.5C 89.5691,120.394 86.2357,117.894 82.5,116C 79.0357,115.183 75.7024,115.517 72.5,117C 78.5795,121.569 80.4128,127.402 78,134.5C 67.883,145.02 66.883,156.353 75,168.5C 77.3743,178.166 73.8743,183.999 64.5,186C 68.612,181.996 70.112,177.163 69,171.5C 66.0496,166.882 62.7162,162.548 59,158.5C 57.2993,156.1 56.466,153.433 56.5,150.5C 57.7009,143.898 59.7009,137.565 62.5,131.5C 61.1152,123.916 56.7818,118.749 49.5,116C 46.0357,115.183 42.7024,115.517 39.5,117C 46.4172,122.612 47.2505,129.112 42,136.5C 30.6238,145.562 29.9571,155.229 40,165.5C 43.1678,174.188 40.8344,180.855 33,185.5C 9.18103,164.352 -0.985636,137.686 2.5,105.5 Z"/></g>
<g><path style="opacity:1" fill="#cb0000" d="M 44.5,118.5 C 53.1743,118.131 58.5077,122.464 60.5,131.5C 58.6696,135.828 56.8363,140.162 55,144.5C 53.2456,153.996 56.2456,161.663 64,167.5C 68.9428,174.374 68.1095,180.374 61.5,185.5C 60.6143,186.325 60.281,187.325 60.5,188.5C 74.4821,187.671 79.9821,180.338 77,166.5C 71.8465,160.777 70.1798,154.11 72,146.5C 74.9915,142.173 77.9915,137.839 81,133.5C 82.4403,127.805 81.2736,122.805 77.5,118.5C 80.359,117.401 83.0257,117.901 85.5,120C 88.372,122.537 90.872,125.37 93,128.5C 93.6667,132.167 93.6667,135.833 93,139.5C 87.626,144.866 86.626,150.866 90,157.5C 93.3847,161.217 96.3847,165.217 99,169.5C 100.515,176.285 99.3482,182.452 95.5,188C 109.211,187.953 115.044,181.119 113,167.5C 111.254,163.673 109.254,160.007 107,156.5C 106.333,152.833 106.333,149.167 107,145.5C 109.765,141.739 112.098,137.739 114,133.5C 114.914,128.804 114.414,124.304 112.5,120C 127.57,124.205 131.07,133.039 123,146.5C 121.932,151.768 122.599,156.768 125,161.5C 128.516,163.926 131.849,166.593 135,169.5C 136.218,173.147 136.885,176.814 137,180.5C 117.908,198.861 95.0748,206.027 68.5,202C 55.8163,199.89 44.4829,194.89 34.5,187C 42.1321,183.125 44.9655,176.958 43,168.5C 41.7765,164.385 39.7765,160.718 37,157.5C 35,153.5 35,149.5 37,145.5C 41.3263,141.503 44.6596,136.836 47,131.5C 47.6667,128.833 47.6667,126.167 47,123.5C 46.9005,121.347 46.0672,119.681 44.5,118.5 Z"/></g>
<g><path style="opacity:1" fill="#fefffe" d="M -0.5,131.5 C 6.6688,171.666 30.0021,196.666 69.5,206.5C 46.1667,206.5 22.8333,206.5 -0.5,206.5C -0.5,181.5 -0.5,156.5 -0.5,131.5 Z"/></g>
<g><path style="opacity:1" fill="#fefffe" d="M 165.5,132.5 C 165.5,157.167 165.5,181.833 165.5,206.5C 142.167,206.5 118.833,206.5 95.5,206.5C 134.603,196.731 157.936,172.065 165.5,132.5 Z"/></g>
</svg>

<svg xmlns="http://www.w3.org/2000/svg" width="166" height="207" style="shape-rendering:geometricPrecision;text-rendering:geometricPrecision;image-rendering:optimizeQuality;fill-rule:evenodd;clip-rule:evenodd"><path style="opacity:1" d="M-.5-.5h166v133c-7.564 39.565-30.897 64.231-70 74h-26c-39.498-9.834-62.831-34.834-70-75V-.5z"/><path style="opacity:1" fill="#cb0000" d="M2.5 2.5h159v100H2.5V2.5z"/><path style="opacity:1" d="M104.5 5.5c4.682 3.632 5.182 7.966 1.5 13a119.69 119.69 0 0 0-17 12 26.803 26.803 0 0 1-3.5 7.5c4.741.734 9.408 1.4 14 2a114.922 114.922 0 0 0 19-17 20.507 20.507 0 0 1 8-3c7.632.735 13.799-1.765 18.5-7.5 2.495 4.523 1.662 8.357-2.5 11.5a295.62 295.62 0 0 0-18 7 51.532 51.532 0 0 0-8 9c5.72.788 11.386.62 17-.5 6.087.712 11.42 3.045 16 7 1.771 4.26 4.437 7.76 8 10.5-1.772 1.487-3.772 1.82-6 1a27.83 27.83 0 0 1-8-6 146.046 146.046 0 0 0-22 1 741.722 741.722 0 0 0 4.5 8.5 175.922 175.922 0 0 1 10.5 7c2.416 4.5 5.083 8.834 8 13 3.776 4.156 8.276 5.49 13.5 4 .684 1.284.517 2.45-.5 3.5-4.506 2.814-9.173 3.147-14 1-5.817-7.153-12.817-12.82-21-17-6.582-5.908-11.582-12.908-15-21a89.757 89.757 0 0 1-27-1.5 86.555 86.555 0 0 1-25 12c-2.414 3.791-5.58 6.791-9.5 9-.595 1.399-.428 2.732.5 4 1.667 1 3 2.333 4 4-2.35 5.84-6.184 10.172-11.5 13-2.145.104-3.979-.563-5.5-2-3.354 7.036-8.02 7.87-14 2.5-7.416-5.43-7.75-11.096-1-17-3.621-3.381-3.788-6.881-.5-10.5a56.464 56.464 0 0 1 8-6 44.827 44.827 0 0 1 8 4c4.371-2.705 7.705-6.372 10-11a173.718 173.718 0 0 1 3-20c1.002-3.664 2.836-6.83 5.5-9.5 6.922-2.706 13.089-6.54 18.5-11.5.546-5.331 2.213-5.998 5-2 .728 2.73.562 5.397-.5 8a103.018 103.018 0 0 0-16.5 13c-1.872 6.225-2.539 12.559-2 19a148.74 148.74 0 0 0 16-13A129.172 129.172 0 0 1 83.5 21a275.718 275.718 0 0 1 17-8c2.524-1.883 3.858-4.383 4-7.5z"/><path style="opacity:1" fill="#fefffe" d="M73.5 10.5c1.113 1.446 1.28 3.113.5 5a87.444 87.444 0 0 1-12.5 9c-2.077 1.576-3.577 3.576-4.5 6a83.224 83.224 0 0 0-3 22c8.964-2.946 16.298-8.28 22-16A105.154 105.154 0 0 1 85.5 22c7.601-1.63 14.101-5.13 19.5-10.5.746 3.29-.42 5.79-3.5 7.5A235.385 235.385 0 0 0 89 26.5 297.4 297.4 0 0 1 81.5 41c2.334.34 4.668.172 7-.5 4.6 2.268 9.267 2.435 14 .5a191.966 191.966 0 0 0 17-16c5.689-2.605 11.689-3.938 18-4a18.592 18.592 0 0 0 6.5-3.5c.163 1.887-.671 3.387-2.5 4.5a105.88 105.88 0 0 0-20 8.5 53.417 53.417 0 0 0-9 12.5 915.649 915.649 0 0 1 27 0c6.424 2.079 10.258 6.245 11.5 12.5-6.712-6.649-14.546-8.316-23.5-5a50.386 50.386 0 0 0-9-.5c1.09 5.847 3.757 10.847 8 15 3.774 1.302 6.941 3.469 9.5 6.5 2.526 9.193 8.36 15.026 17.5 17.5-3.094.652-6.094.319-9-1-6.502-7.843-14.168-14.177-23-19-5.37-5.23-9.37-11.396-12-18.5a2603.07 2603.07 0 0 0-28-2 101.195 101.195 0 0 0-17 8.5c-3.319.88-6.652 1.712-10 2.5a65.168 65.168 0 0 1-11.5 12c-.797 1.759-.63 3.425.5 5 1.997.486 3.33 1.653 4 3.5a27.902 27.902 0 0 1-7 10c-2.975.713-5.475-.12-7.5-2.5a54.235 54.235 0 0 1-6 7c-5.508-1.989-9.341-5.656-11.5-11 1.397-2.906 3.397-5.406 6-7.5-3.154-2.775-3.654-5.942-1.5-9.5a37.878 37.878 0 0 1 6.5-4 33.052 33.052 0 0 1 8.5 4c4.418-3.747 8.084-8.08 11-13a185.167 185.167 0 0 1 5-25c1.167-2.5 3-4.333 5.5-5.5l12-6c2.29-1.777 3.957-3.944 5-6.5zM2.5 105.5h159c3.171 23.631-1.662 45.298-14.5 65l-8 8c.061-8.448-3.772-14.448-11.5-18-2.78-3.55-3.614-7.55-2.5-12 7.735-12.105 5.569-21.939-6.5-29.5-3.88-1.64-7.88-2.307-12-2 5.543 3.777 7.377 8.944 5.5 15.5-4.033 5.233-6.866 11.066-8.5 17.5.388 5.939 2.554 11.105 6.5 15.5 3.292 9.294.459 15.96-8.5 20l-1-1c2.408-5.597 2.574-11.264.5-17-4.814-5.124-8.314-10.957-10.5-17.5.288-3.743 1.788-6.91 4.5-9.5 2.24-6.114 1.407-11.781-2.5-17-2.93-3.106-6.264-5.606-10-7.5-3.464-.817-6.798-.483-10 1 6.08 4.569 7.913 10.402 5.5 17.5-10.117 10.52-11.117 21.853-3 34 2.374 9.666-1.126 15.499-10.5 17.5 4.112-4.004 5.612-8.837 4.5-14.5a94.117 94.117 0 0 0-10-13c-1.7-2.4-2.534-5.067-2.5-8a78.818 78.818 0 0 1 6-19c-1.385-7.584-5.718-12.751-13-15.5-3.464-.817-6.798-.483-10 1 6.917 5.612 7.75 12.112 2.5 19.5-11.376 9.062-12.043 18.729-2 29 3.168 8.688.834 15.355-7 20-23.819-21.148-33.986-47.814-30.5-80z"/><path style="opacity:1" fill="#cb0000" d="M44.5 118.5c8.674-.369 14.008 3.964 16 13l-5.5 13c-1.754 9.496 1.246 17.163 9 23 4.943 6.874 4.11 12.874-2.5 18-.886.825-1.219 1.825-1 3 13.982-.829 19.482-8.162 16.5-22-5.153-5.723-6.82-12.39-5-20 2.992-4.327 5.992-8.661 9-13 1.44-5.695.274-10.695-3.5-15 2.859-1.099 5.526-.599 8 1.5a45.255 45.255 0 0 1 7.5 8.5 30.499 30.499 0 0 1 0 11c-5.374 5.366-6.374 11.366-3 18a78.703 78.703 0 0 1 9 12c1.515 6.785.348 12.952-3.5 18.5 13.711-.047 19.544-6.881 17.5-20.5a87.45 87.45 0 0 0-6-11 30.485 30.485 0 0 1 0-11 65.412 65.412 0 0 0 7-12c.914-4.696.414-9.196-1.5-13.5 15.07 4.205 18.57 13.039 10.5 26.5-1.068 5.268-.401 10.268 2 15a90.68 90.68 0 0 1 10 8c1.218 3.647 1.885 7.314 2 11-19.092 18.361-41.925 25.527-68.5 21.5-12.684-2.11-24.017-7.11-34-15 7.632-3.875 10.465-10.042 8.5-18.5-1.224-4.115-3.224-7.782-6-11-2-4-2-8 0-12 4.326-3.997 7.66-8.664 10-14a16.25 16.25 0 0 0 0-8c-.1-2.153-.933-3.819-2.5-5z"/><path style="opacity:1" fill="#fefffe" d="M-.5 131.5c7.169 40.166 30.502 65.166 70 75h-70v-75zM165.5 132.5v74h-70c39.103-9.769 62.436-34.435 70-74z"/></svg>
